X: 1
T: Forgotten, The
M: 6/8
L: 1/8
R: jig
K: Dmaj
|:e| Aee e2 c |efe dcB | Aee fdd |ecc dBB |
Aee e2 c |efe dcB |AAA ABc |dcB A2 :|
|:e|Aaa a2 c|efe dcB|Aaa fdd|ecc dBB|
Aaa a2 c|efe dcB|AAA ABc|dcB A2:|
